resources/assets/img/patterns/molecules/nav-secondary-profile-ic.svg

<?xml version="1.0" encoding="UTF-8" standalone="no"?>
<svg width="21px" height="14px" viewBox="0 0 21 14" version="1.1" xmlns="http://www.w3.org/2000/svg" xmlns:xlink="http://www.w3.org/1999/xlink" xmlns:sketch="http://www.bohemiancoding.com/sketch/ns">
    <!-- Generator: Sketch 3.5.2 (25235) - http://www.bohemiancoding.com/sketch -->
    <title>profile-hover</title>
    <desc>Created with Sketch.</desc>
    <defs></defs>
    <g id="Page-1" stroke="none" stroke-width="1" fill="none" fill-rule="evenodd" sketch:type="MSPage">
        <g id="home" sketch:type="MSArtboardGroup" transform="translate(-994.000000, -14.000000)" fill="#212121">
            <g id="nav-med" sketch:type="MSLayerGroup" transform="translate(-2.000000, -2.000000)">
                <g id="secondary-nav-med" sketch:type="MSShapeGroup">
                    <g id="profile-hover" transform="translate(996.000000, 16.000000)">
                        <path d="M7,7 C8.925,7 10.5,5.425 10.5,3.5 C10.5,1.575 8.925,0 7,0 C5.075,0 3.5,1.575 3.5,3.5 C3.5,5.425 5.075,7 7,7 L7,7 Z M7,8.75 C4.6375,8.75 0,9.8875 0,12.25 L0,14 L14,14 L14,12.25 C14,9.8875 9.3625,8.75 7,8.75 L7,8.75 Z" id="Shape"></path>
                        <path d="M15.0089722,1.00390625 L21.0265503,1.00390625 L18.0177612,4.02478027 L15.0089722,1.00390625 Z" id="Path"></path>
                    </g>
                </g>
            </g>
        </g>
    </g>
</svg>

<svg width="21" height="14" viewBox="0 0 21 14" xmlns="http://www.w3.org/2000/svg"><title>profile-hover</title><g fill="#212121" fill-rule="evenodd"><path d="M7 7a3.51 3.51 0 0 0 3.5-3.5A3.51 3.51 0 0 0 7 0a3.51 3.51 0 0 0-3.5 3.5A3.51 3.51 0 0 0 7 7zm0 1.75c-2.362 0-7 1.137-7 3.5V14h14v-1.75c0-2.363-4.637-3.5-7-3.5zM15.009 1.004h6.018l-3.01 3.02-3.008-3.02z"/></g></svg>
